main-pages/gulp-scss-starter/dist/img/default/offer/services3.svg

<svg width="16" height="25" viewBox="0 0 16 25" fill="none" xmlns="http://www.w3.org/2000/svg">
<path d="M6.79487 15.048L6.99387 14.4011H6.31696H0.808866C0.737572 14.4011 0.668475 14.3764 0.613303 14.3312C0.48129 14.2232 0.461822 14.0287 0.569828 13.8966L0.182835 13.58L0.569828 13.8966L11.437 0.613323L11.0509 0.297391L11.437 0.613322C11.5165 0.516173 11.6469 0.476789 11.7668 0.513679L11.9138 0.0357636L11.7668 0.513679C11.9299 0.563806 12.0214 0.736606 11.9712 0.899657L9.20382 9.89943L9.00488 10.5464H9.68174H15.1911C15.2624 10.5464 15.3315 10.5711 15.3867 10.6162C15.5187 10.7242 15.5382 10.9188 15.4302 11.0508L4.56169 24.3318C4.4822 24.4289 4.35182 24.4683 4.23187 24.4314C4.06886 24.3813 3.97734 24.2085 4.02749 24.0454L6.79487 15.048Z" stroke="#616161"/>
</svg>

<svg width="16" height="25" viewBox="0 0 16 25" fill="none" xmlns="http://www.w3.org/2000/svg"><path d="M6.795 15.048l.199-.647H.809a.309.309 0 01-.24-.504l-.386-.317.387.317L11.437.613l-.386-.316.386.316a.309.309 0 01.33-.1l.147-.477-.147.478c.163.05.254.223.204.386l-2.767 9-.2.646h6.188a.31.31 0 01.238.505L4.562 24.33a.309.309 0 01-.535-.286l2.768-8.997z" stroke="#616161"/></svg>
